X:4
T:Garden of Daisies, The
R:set dance
H:Also played with c# all the way
D:Paddy Moloney & Sean Potts: Tin Whistles
Z:id:hn-setdance-4
M:C|
K:D
fg|a2 (3agf gbag|~f3a gfef|dcde (3fed (3edc|dedc AGFG|
AB (3=cBA d^cAG|~F3G AB (3=cBA|dcdf ed (3cde|d2dc d2:|
|:(3ABc|dcde ~f3g|abaf defg|a2 (3agf gbag|fgfe defg|
a2 (3agf gbag|fefa gfef|dcde fd (3edc|dedc A2fg|
a2 (3agf gbag|~f3a gfef|dcde fd (3edc|dedc AGFG|
AB (3=cBA d^cAG|~F3G AB (3=cBA|dcdf ed (3cde|d2dc d2:|
<end>
<start>
